src/img/projects/represent.svg

<?xml version="1.0" encoding="UTF-8"?>
<svg width="90px" height="90px" viewBox="0 0 90 90" version="1.1" xmlns="http://www.w3.org/2000/svg" xmlns:xlink="http://www.w3.org/1999/xlink">
    <!-- Generator: Sketch 41.2 (35397) - http://www.bohemiancoding.com/sketch -->
    <title>community/card/logo/tshirt</title>
    <desc>Created with Sketch.</desc>
    <defs></defs>
    <g id="Symbols" stroke="none" stroke-width="1" fill="none" fill-rule="evenodd">
        <g id="community/card/logo/tshirt" fill="#FFFFFF">
            <path d="M77.5350633,36.4163055 L65.5582496,17.6133049 C65.3382493,17.2677394 64.9745156,17.0376059 64.5667818,16.9864651 L55.1214376,15.7926934 C54.602237,15.726941 54.0881697,15.9607274 53.7977694,16.3968851 C52.021634,19.0693557 48.55443,20.7299696 44.749159,20.7299696 C40.9438879,20.7299696 37.4766839,19.0700863 35.7005486,16.3968851 C35.4108816,15.9607274 34.8975477,15.726941 34.3776137,15.7926934 L24.9322695,16.9864651 C24.5245357,17.0376059 24.1615353,17.2677394 23.9415351,17.6133049 L11.9647213,36.4163055 C11.6222542,36.9532836 11.6955876,37.6553733 12.1414548,38.1112568 L22.2607331,48.4584961 C22.5203334,48.7229669 22.8767338,48.8727363 23.2485343,48.8727363 L23.2566009,48.8727363 C23.6313347,48.8705446 23.9892018,48.7171222 24.2473354,48.4468067 L25.1918698,47.4590593 L25.1918698,73.7644111 C25.1918698,74.5234863 25.8093372,75.1386367 26.5705381,75.1386367 L62.9292465,75.1386367 C63.6911808,75.1386367 64.3086481,74.5234863 64.3086481,73.7644111 L64.3086481,47.4590593 L65.2524492,48.4468067 C65.5113162,48.7171222 65.8691833,48.8705446 66.243917,48.8727363 C66.6237841,48.8749281 66.9779845,48.7251587 67.2390515,48.4584961 L77.3583298,38.1112568 C77.804197,37.6553733 77.8782637,36.9532836 77.5350633,36.4163055 L77.5350633,36.4163055 Z M66.2622504,45.5193629 L64.8175821,44.0085183 L64.3071815,31.9297986 C64.2756481,31.1831434 63.6493807,30.6023303 62.8999132,30.6140196 C62.1504457,30.6300924 61.549845,31.2401288 61.549845,31.9875146 L61.549845,69.2201882 C61.1699779,69.2209188 60.8627108,69.528494 60.8627108,69.9062051 C60.8627108,70.2853774 61.1699779,70.5914915 61.549845,70.5922221 L61.549845,72.3901855 L27.9492063,72.3901855 L27.9492063,70.5483871 C28.2168733,70.4534114 28.4104735,70.205744 28.4104735,69.9069357 C28.4104735,69.6088581 28.21614,69.3604601 27.9492063,69.2654843 L27.9492063,31.9882452 C27.9492063,31.2408594 27.349339,30.630823 26.5991381,30.6147502 C25.8306039,30.5913716 25.2241365,31.1838739 25.1926032,31.9305292 L24.6822026,44.0085183 L23.2375342,45.5193629 L14.8775246,36.9715481 L25.923004,19.6311736 L33.9148799,18.6207781 C36.2982159,21.6358919 40.3638206,23.4769596 44.7498923,23.4769596 C49.135964,23.4769596 53.2008354,21.6351613 55.5841714,18.6207781 L63.5760473,19.6311736 L74.6215267,36.9715481 L66.2622504,45.5193629 L66.2622504,45.5193629 Z" id="community/icon-tshirt"></path>
        </g>
    </g>
</svg>

<svg width="90" height="90" viewBox="0 0 90 90" xmlns="http://www.w3.org/2000/svg"><title>community/card/logo/tshirt</title><path d="M77.535 36.416L65.558 17.613a1.379 1.379 0 0 0-.991-.627l-9.446-1.193a1.383 1.383 0 0 0-1.323.604c-1.776 2.672-5.244 4.333-9.049 4.333-3.805 0-7.272-1.66-9.048-4.333a1.38 1.38 0 0 0-1.323-.604l-9.446 1.193c-.407.052-.77.282-.99.627L11.965 36.416a1.37 1.37 0 0 0 .176 1.695l10.12 10.347c.26.265.616.415.988.415h.008a1.38 1.38 0 0 0 .99-.426l.945-.988v26.305c0 .76.617 1.375 1.379 1.375h36.358c.762 0 1.38-.616 1.38-1.375V47.46l.943.988a1.384 1.384 0 0 0 1.987.011l10.12-10.347a1.37 1.37 0 0 0 .176-1.695zM66.262 45.52l-1.444-1.51-.51-12.08a1.38 1.38 0 0 0-2.758.059V69.22a.687.687 0 0 0 0 1.372v1.798h-33.6v-1.842a.682.682 0 0 0 .46-.641.683.683 0 0 0-.46-.642V31.988c0-.747-.6-1.357-1.35-1.373a1.36 1.36 0 0 0-1.407 1.316l-.51 12.078-1.445 1.51-8.36-8.547 11.045-17.34 7.992-1.011c2.383 3.015 6.449 4.856 10.835 4.856 4.386 0 8.45-1.842 10.834-4.856l7.992 1.01 11.046 17.34-8.36 8.548z" fill="#FFF" fill-rule="evenodd"/></svg>
